logo/rocket-chat-icon.svg

<?xml version="1.0" encoding="UTF-8"?>
<svg width="256px" height="230px" viewBox="0 0 256 230" version="1.1" xmlns="http://www.w3.org/2000/svg" xmlns:xlink="http://www.w3.org/1999/xlink" preserveAspectRatio="xMidYMid">
    <g>
        <path d="M4.27808883,5.10765458 C17.5611059,0.324381379 43.8606094,-5.24148563 73.6923239,9.68083091 C81.7331183,14.1397798 89.3251622,19.7817984 95.8184471,26.0547876 C106.284534,24.1639158 117.066107,23.209301 128.009502,23.209301 C160.763534,23.209301 191.818434,31.7926756 215.453311,47.3738396 C227.685844,55.4506701 237.416252,65.0267354 244.358968,75.8436641 C252.084277,87.9014561 256.009484,100.857429 255.999983,114.758498 C255.999983,128.277449 252.084277,141.25178 244.349449,153.300733 C237.406733,164.127181 227.676325,173.693727 215.443792,181.770558 C191.818434,197.351722 160.763534,205.925578 127.999983,205.925578 C117.055908,205.925578 106.275015,204.970283 95.8089281,203.080091 C89.3156432,209.3524 81.7235994,214.995099 73.682805,219.454048 C43.8408916,234.376364 17.551587,228.809817 4.26856988,224.017025 C-0.0951895163,222.442318 -1.43260222,216.904328 1.78548336,213.572695 C11.1534916,203.872884 26.6523846,184.692196 22.8420843,167.258916 C8.03127548,152.088427 0,133.795722 0,114.385899 C0,95.339157 8.03127548,77.0464516 22.8516032,61.8664435 C26.6619036,44.4331635 11.1630106,25.2619949 1.79500231,15.5621832 C-1.43260222,12.2298702 -0.0856705647,6.68304107 4.27808883,5.10765458 Z M126.672769,48.7391292 C69.2041382,48.7391292 22.6129495,78.8890487 22.6129495,116.075513 C22.6129495,132.277449 31.4553757,147.152171 46.1995518,158.771411 C50.3538943,172.013632 47.9190824,186.945468 38.9039553,203.557398 C38.4742427,204.35971 38.0730868,205.161342 37.6338552,205.954134 C45.3693633,205.314325 53.189862,203.185479 61.1062301,199.299707 C67.0841317,195.938837 72.8138607,191.670947 77.7032022,186.954987 L77.7032022,186.954987 L86.6986115,178.276423 C99.0079758,181.589018 112.510609,183.422096 126.672769,183.422096 C184.14072,183.422096 230.731908,153.281695 230.741427,116.075513 C230.741427,78.8890487 184.14072,48.7391292 126.672769,48.7391292 Z M76.8818526,100.599738 C85.3523597,100.599738 92.2182436,107.435025 92.2182436,115.865416 C92.2182436,124.295808 85.3523597,131.131775 76.8818526,131.131775 C68.4120255,131.131775 61.5461416,124.295808 61.5461416,115.865416 C61.5461416,107.435025 68.4120255,100.599738 76.8818526,100.599738 Z M126.252575,100.599738 C134.722402,100.599738 141.588966,107.435025 141.588966,115.865416 C141.588966,124.295808 134.722402,131.131775 126.252575,131.131775 C117.782068,131.131775 110.916184,124.295808 110.916184,115.865416 C110.916184,107.435025 117.782068,100.599738 126.252575,100.599738 Z M175.622618,100.599738 C184.082926,100.599738 190.958329,107.435025 190.958329,115.865416 C190.958329,124.295808 184.092445,131.131775 175.622618,131.131775 C167.152111,131.131775 160.286227,124.295808 160.286227,115.865416 C160.286227,107.435025 167.152111,100.599738 175.622618,100.599738 Z" fill="#F5455C"></path>
    </g>
</svg>

<svg viewBox="0 0 256 230" xmlns="http://www.w3.org/2000/svg"><path fill="#F5455C" d="M4.27 5.1C17.55.31 43.85-5.25 73.68 9.67c8.04 4.45 15.63 10.1 22.12 16.37 10.46-1.9 21.24-2.85 32.19-2.85 32.75 0 63.8 8.58 87.44 24.16 12.23 8.07 21.96 17.65 28.9 28.46 7.72 12.05 11.65 25.01 11.64 38.91 0 13.51-3.92 26.49-11.66 38.54 -6.95 10.82-16.68 20.39-28.91 28.46 -23.63 15.58-54.69 24.15-87.45 24.15 -10.95 0-21.73-.96-32.2-2.85 -6.5 6.27-14.09 11.91-22.13 16.37 -29.85 14.92-56.14 9.35-69.42 4.56 -4.37-1.58-5.71-7.12-2.49-10.45 9.36-9.7 24.86-28.89 21.05-46.32C7.94 152-.09 133.71-.09 114.3c0-19.05 8.03-37.34 22.85-52.52C26.57 44.34 11.07 25.17 1.7 15.47 -1.53 12.13-.19 6.59 4.18 5.01Zm122.39 43.63c-57.47 0-104.06 30.14-104.06 67.33 0 16.2 8.84 31.07 23.58 42.69 4.15 13.24 1.71 28.17-7.3 44.78 -.43.8-.84 1.6-1.28 2.39 7.73-.64 15.55-2.77 23.47-6.66 5.97-3.37 11.7-7.63 16.59-12.35v0l8.99-8.68c12.3 3.31 25.81 5.14 39.97 5.14 57.46 0 104.05-30.15 104.06-67.35 0-37.19-46.61-67.34-104.07-67.34Zm-49.8 51.86c8.47 0 15.33 6.83 15.33 15.26s-6.87 15.26-15.34 15.26c-8.47 0-15.34-6.84-15.34-15.27 0-8.44 6.86-15.27 15.33-15.27Zm49.37 0c8.46 0 15.33 6.83 15.33 15.26s-6.87 15.26-15.34 15.26c-8.48 0-15.34-6.84-15.34-15.27 0-8.44 6.86-15.27 15.33-15.27Zm49.37 0c8.46 0 15.33 6.83 15.33 15.26s-6.87 15.26-15.34 15.26c-8.48 0-15.34-6.84-15.34-15.27 0-8.44 6.86-15.27 15.33-15.27Z"/></svg>
